kora/apps/scalable/soundux.svg

<svg xmlns="http://www.w3.org/2000/svg" width="48" height="48" version="1.1">
 <circle style="opacity:0.2" cx="24" cy="25" r="20"/>
 <circle style="fill:#0cbb94" cx="24" cy="24" r="20"/>
 <path style="opacity:0.2" d="m 21.404297,14 c -2.720227,0 -5.187037,1.837546 -5.392578,4.505859 -0.768282,0.499039 -1.327538,0.611846 -1.835938,0.580079 -0.523683,-0.03273 -1.027788,-0.212075 -1.648437,-0.212891 -0.239002,-0.0042 -0.443523,0.152654 -0.490235,0.392578 v 0.0039 0.002 c -0.308575,1.820227 1.281267,4.240214 4.904297,4.140625 l 0.470703,0.769532 c -1.275355,1.471631 -3.427734,3.304083 -3.427734,5.947265 0,1.37976 0.418196,2.772864 1.355469,3.867188 0.933997,1.095053 2.789826,1.867018 4.728515,2.003906 h 0.0078 7.859375 c 2.163406,0 4.181622,-1.32721 5.652344,-3.273438 C 35.055291,30.781893 36,27.991184 36,25.316406 v -0.002 c 0.0038,-0.186749 -0.109943,-0.332299 -0.242188,-0.412109 -0.132697,-0.08009 -0.309329,-0.111553 -0.474609,-0.02734 h -0.002 c -2.372434,1.227193 -3.115441,0.809655 -4.628906,0.177734 -1.191334,-0.496724 -2.672984,-1.050297 -4.666016,-1.042968 0.573305,-0.46325 1.107171,-0.73658 1.404297,-1.279297 0.509179,-0.927639 0.650391,-1.91468 0.650391,-2.859375 v -0.002 C 28.025106,18.008144 27.344955,16.528103 26.222656,15.527344 25.100356,14.526584 23.145723,14.00532 21.404297,14 Z m 0,0.96875 c 3.00008,-0.0078 5.634199,1.907912 5.658203,4.902344 -1.85e-4,0.850553 -0.119335,1.652257 -0.525391,2.392578 -0.404625,0.739322 -1.097414,1.234662 -2.333984,1.841797 v 0.002 c -0.219512,0.110068 -0.322288,0.350435 -0.246094,0.582031 v 0.0039 0.002 c 0.08046,0.233706 0.307543,0.360022 0.544922,0.324219 l 0.002,-0.002 h 0.0039 c 2.751774,-0.492338 4.19682,0.278846 5.75586,0.931641 1.385074,0.578648 2.556672,0.869451 4.669922,0.03711 -0.144762,2.21206 -0.920582,4.556212 -2.134766,6.164063 -1.338671,1.773083 -3.11092,2.880859 -4.863281,2.880859 h -7.820313 c -1.709788,-0.125402 -3.270272,-0.770034 -4.03125,-1.660156 -0.762075,-0.893145 -1.121093,-2.056319 -1.121093,-3.242188 0,-2.336036 2.094549,-4.026127 3.423828,-5.591797 l 0.002,-0.002 v -0.002 c 0.133569,-0.163457 0.146544,-0.383397 0.03516,-0.560547 l -0.617187,-1.011718 0.353515,-0.519532 c 0.114678,-0.172308 0.108102,-0.394491 -0.01758,-0.560547 -0.734321,-1.12526 -1.228817,-1.831378 -1.21289,-3.03125 v -0.002 -0.002 c -2e-6,-2.273201 2.086465,-3.876953 4.474609,-3.876953 z M 19,18 c -0.55211,0 -1,0.447983 -1,1.001953 C 18,19.553035 18.44789,20 19,20 19.551792,20 20,19.553035 20,19.001953 20,18.447983 19.551792,18 19,18 Z m -2.953125,1.574219 c 0.147119,0.963108 0.551584,1.809815 1.113281,2.597656 l -0.195312,0.283203 c -2.848733,0.110435 -3.842988,-1.374619 -3.916016,-2.542969 0.70619,0.119671 1.696763,0.300127 2.998047,-0.33789 z M 22.169922,27 C 19.344944,27 18,28.726489 18,30.246094 v 0.002 c 0.01321,1.197731 0.534486,2.148135 1.314453,2.783203 0.779966,0.635068 1.810016,0.962392 2.853516,0.96875 h 0.002 c 1.89902,0 3.754078,-0.347737 5.560547,-0.513672 l 0.002,-0.002 h 0.002 c 0.207867,-0.02294 0.344432,-0.177515 0.394531,-0.335937 0.0501,-0.158423 0.02714,-0.365773 -0.132812,-0.498047 l -0.0039,-0.002 -0.769532,-0.589844 1.50586,-0.904297 c 0.310783,-0.180176 0.320149,-0.613104 0.01563,-0.804688 l -0.871094,-0.55664 1.859375,-0.886719 c 0.405336,-0.188179 0.333184,-0.796292 -0.103516,-0.892578 l -0.0078,-0.002 -0.0098,-0.002 C 27.171252,27.67175 24.7835,27.075361 22.177734,27 h -0.0039 z m 0.002,0.951172 h 0.002 c 0.948052,6.45e-4 3.566944,0.378191 5.742188,0.763672 l -1.238282,0.599609 c -0.169276,0.07996 -0.248621,0.241237 -0.259765,0.392578 -0.01115,0.151342 0.04479,0.322277 0.199219,0.425781 l 0.002,0.002 0.9375,0.597656 -1.439453,0.865234 v 0.002 c -0.300123,0.172302 -0.327355,0.583926 -0.04883,0.78711 v 0.002 l 0.365235,0.277344 c -1.444956,0.168914 -2.874471,0.382812 -4.263672,0.382812 h -0.002 -0.0039 C 20.439107,33.090298 18.949217,31.917005 18.984375,30.25 v -0.002 -0.002 c -9.86e-4,-0.921696 0.453329,-1.454081 1.089844,-1.802735 0.635352,-0.348016 1.458555,-0.478279 2.097656,-0.492187 z"/>
 <path style="fill:#ffffff" d="M 21.404297 13 C 18.68407 13 16.21726 14.837546 16.011719 17.505859 C 15.243437 18.004898 14.684181 18.117705 14.175781 18.085938 C 13.652098 18.053207 13.147993 17.873863 12.527344 17.873047 C 12.288342 17.868847 12.083821 18.025701 12.037109 18.265625 L 12.037109 18.269531 L 12.037109 18.271484 C 11.728534 20.091711 13.318376 22.511698 16.941406 22.412109 L 17.412109 23.181641 C 16.136754 24.653272 13.984375 26.485724 13.984375 29.128906 C 13.984375 30.508666 14.402571 31.90177 15.339844 32.996094 C 16.273841 34.091147 18.12967 34.863112 20.068359 35 L 20.076172 35 L 27.935547 35 C 30.098953 35 32.117169 33.67279 33.587891 31.726562 C 35.055291 29.781893 36 26.991184 36 24.316406 L 36 24.314453 C 36.0038 24.127704 35.890057 23.982154 35.757812 23.902344 C 35.625115 23.822254 35.448483 23.790791 35.283203 23.875 L 35.28125 23.875 C 32.908816 25.102193 32.165809 24.684655 30.652344 24.052734 C 29.46101 23.55601 27.97936 23.002437 25.986328 23.009766 C 26.559633 22.546516 27.093499 22.273186 27.390625 21.730469 C 27.899804 20.80283 28.041016 19.815789 28.041016 18.871094 L 28.041016 18.869141 C 28.025106 17.008144 27.344955 15.528103 26.222656 14.527344 C 25.100356 13.526584 23.145723 13.00532 21.404297 13 z M 21.404297 13.96875 C 24.404377 13.96095 27.038496 15.876662 27.0625 18.871094 C 27.062315 19.721647 26.943165 20.523351 26.537109 21.263672 C 26.132484 22.002994 25.439695 22.498334 24.203125 23.105469 L 24.203125 23.107422 C 23.983613 23.21749 23.880837 23.457857 23.957031 23.689453 L 23.957031 23.693359 L 23.957031 23.695312 C 24.037491 23.929018 24.264574 24.055334 24.501953 24.019531 L 24.503906 24.017578 L 24.507812 24.017578 C 27.259586 23.52524 28.704632 24.296424 30.263672 24.949219 C 31.648746 25.527867 32.820344 25.81867 34.933594 24.986328 C 34.788832 27.198388 34.013012 29.54254 32.798828 31.150391 C 31.460157 32.923474 29.687908 34.03125 27.935547 34.03125 L 20.115234 34.03125 C 18.405446 33.905848 16.844962 33.261216 16.083984 32.371094 C 15.321909 31.477949 14.962891 30.314775 14.962891 29.128906 C 14.962891 26.79287 17.05744 25.102779 18.386719 23.537109 L 18.388672 23.535156 L 18.388672 23.533203 C 18.522241 23.369746 18.535216 23.149806 18.423828 22.972656 L 17.806641 21.960938 L 18.160156 21.441406 C 18.274834 21.269098 18.268258 21.046915 18.142578 20.880859 C 17.408257 19.755599 16.913761 19.049481 16.929688 17.849609 L 16.929688 17.847656 L 16.929688 17.845703 C 16.929686 15.572502 19.016153 13.96875 21.404297 13.96875 z M 19 17 C 18.44789 17 18 17.447983 18 18.001953 C 18 18.553035 18.44789 19 19 19 C 19.551792 19 20 18.553035 20 18.001953 C 20 17.447983 19.551792 17 19 17 z M 16.046875 18.574219 C 16.193994 19.537327 16.598459 20.384034 17.160156 21.171875 L 16.964844 21.455078 C 14.116111 21.565513 13.121856 20.080459 13.048828 18.912109 C 13.755018 19.03178 14.745591 19.212236 16.046875 18.574219 z M 22.169922 26 C 19.344944 26 18 27.726489 18 29.246094 L 18 29.248047 C 18.01321 30.445778 18.534486 31.396182 19.314453 32.03125 C 20.094419 32.666318 21.124469 32.993642 22.167969 33 L 22.169922 33 C 24.068942 33 25.924 32.652263 27.730469 32.486328 L 27.732422 32.484375 L 27.734375 32.484375 C 27.942242 32.461435 28.078807 32.30686 28.128906 32.148438 C 28.179006 31.990015 28.156049 31.782665 27.996094 31.650391 L 27.992188 31.648438 L 27.222656 31.058594 L 28.728516 30.154297 C 29.039299 29.974121 29.048665 29.541193 28.744141 29.349609 L 27.873047 28.792969 L 29.732422 27.90625 C 30.137758 27.718071 30.065606 27.109958 29.628906 27.013672 L 29.621094 27.011719 L 29.611328 27.009766 C 27.171252 26.67175 24.7835 26.075361 22.177734 26 L 22.173828 26 L 22.169922 26 z M 22.171875 26.951172 L 22.173828 26.951172 C 23.12188 26.951817 25.740772 27.329363 27.916016 27.714844 L 26.677734 28.314453 C 26.508458 28.394413 26.429113 28.55569 26.417969 28.707031 C 26.406819 28.858373 26.462754 29.029308 26.617188 29.132812 L 26.619141 29.134766 L 27.556641 29.732422 L 26.117188 30.597656 L 26.117188 30.599609 C 25.817065 30.771911 25.789833 31.183535 26.068359 31.386719 L 26.068359 31.388672 L 26.433594 31.666016 C 24.988638 31.83493 23.559123 32.048828 22.169922 32.048828 L 22.167969 32.048828 L 22.164062 32.048828 C 20.439107 32.090298 18.949217 30.917005 18.984375 29.25 L 18.984375 29.248047 L 18.984375 29.246094 C 18.983389 28.324398 19.437704 27.792013 20.074219 27.443359 C 20.709571 27.095343 21.532774 26.96508 22.171875 26.951172 z"/>
 <path style="opacity:0.2;fill:#ffffff" d="M 24,4 A 20,20 0 0 0 4,24 20,20 0 0 0 4.0215,24.582 20,20 0 0 1 24,5 20,20 0 0 1 43.979,24.418 20,20 0 0 0 44,24 20,20 0 0 0 24,4 Z"/>
</svg>

<svg clip-rule="evenodd" fill-rule="evenodd" stroke-linejoin="round" stroke-miterlimit="2" viewBox="0 0 48 48" xmlns="http://www.w3.org/2000/svg">
 <linearGradient id="a" x2="1" gradientTransform="matrix(0 -40 40 0 24 44)" gradientUnits="userSpaceOnUse">
  <stop stop-color="#05876a" offset="0"/>
  <stop stop-color="#0cbb94" offset="1"/>
 </linearGradient>
 <g transform="matrix(1.1382 0 0 1.1382 -3.3168 -3.3168)">
  <circle cx="24" cy="24" r="20" fill="url(#a)"/>
  <path d="m21.404 13c-2.72 0-5.187 1.838-5.392 4.506-.769.499-1.328.612-1.836.58-.524-.033-1.028-.212-1.649-.213-.239-.004-.443.153-.49.393v.005c-.308 1.821 1.281 4.241 4.904 4.141l.471.77c-1.275 1.471-3.428 3.304-3.428 5.947 0 1.38.419 2.773 1.356 3.867.934 1.095 2.79 1.867 4.728 2.004h7.868c2.163 0 4.181-1.327 5.652-3.273 1.467-1.945 2.412-4.736 2.412-7.411v-.002c.004-.186-.11-.332-.242-.412-.133-.08-.31-.111-.475-.027h-.002c-2.372 1.227-3.115.81-4.629.178-1.191-.497-2.673-1.051-4.666-1.043.574-.463 1.107-.737 1.405-1.28.509-.927.65-1.914.65-2.859v-.002c-.016-1.861-.696-3.341-1.818-4.342-1.123-1-3.077-1.522-4.819-1.527zm0 .969c3-.008 5.634 1.908 5.659 4.902-.001.851-.12 1.652-.526 2.393-.405.739-1.097 1.234-2.334 1.841v.002c-.219.11-.322.351-.246.582v.006c.08.234.308.36.545.325l.002-.002h.004c2.752-.493 4.197.278 5.756.931 1.385.579 2.556.87 4.67.037-.145 2.212-.921 4.557-2.135 6.164-1.339 1.773-3.111 2.881-4.863 2.881h-7.821c-1.71-.125-3.27-.77-4.031-1.66-.762-.893-1.121-2.056-1.121-3.242 0-2.336 2.094-4.026 3.424-5.592l.002-.002v-.002c.133-.163.146-.383.035-.56l-.617-1.012.353-.52c.115-.172.108-.394-.017-.56-.735-1.125-1.229-1.832-1.213-3.031v-.004c0-2.273 2.086-3.877 4.474-3.877zm-2.404 3.031c-.552 0-1 .448-1 1.002 0 .551.448.998 1 .998s1-.447 1-.998c0-.554-.448-1.002-1-1.002zm-2.953 1.574c.147.963.551 1.81 1.113 2.598l-.195.283c-2.849.111-3.843-1.375-3.916-2.543.706.12 1.697.3 2.998-.338zm6.123 7.426c-2.825 0-4.17 1.726-4.17 3.246v.002c.013 1.198.534 2.148 1.314 2.783s1.81.963 2.854.969h.002c1.899 0 3.754-.348 5.56-.514l.002-.002h.002c.208-.023.345-.177.395-.336.05-.158.027-.365-.133-.498l-.004-.002-.769-.589 1.506-.905c.31-.18.32-.613.015-.804l-.871-.557 1.859-.887c.406-.188.334-.796-.103-.892l-.008-.002-.01-.002c-2.44-.338-4.827-.935-7.433-1.01zm.002.951h.002c.948.001 3.567.378 5.742.764l-1.238.599c-.17.08-.249.242-.26.393s.045.322.199.426l.002.002.938.597-1.44.866v.002c-.3.172-.327.584-.049.787v.002l.366.277c-1.445.169-2.875.383-4.264.383h-.006c-1.725.041-3.215-1.132-3.18-2.799v-.004c-.001-.922.454-1.454 1.09-1.803.636-.348 1.459-.478 2.098-.492z" fill="#fff" fill-rule="nonzero"/>
 </g>
</svg>
